X:1380
T: Lady and the Piper
C: BB
L: 1/8
M: 4/4
Q: 1/8=350
R: reel
K: D
"D" A2 FA DAFA|"G"GB (3BAB "A"ABce|"D"df (3fef "Em" efge|"G"dedc "A"A2 GE|
"D" D2 FA D2 FA |"G"GB (3BAB "A"ABcA|"G"dB"A"cA "Bm7"BAFB|"A7"AGEF "D"D4 :|
"D" Ad (3dcd "G"Bg (3gfg|"D"afdf "A7"gece|"D"Ad (3dcd "G"BGGB|"Bm7"ABAF "A"E2 EG|
"D" FAdA "G"Bdgb|"D"afdf "A7"gecA|"Bm7"FABc dBFB|"A7"AGEF "D"D4 :|
